X: 782
T: Breas of Athol
T: Braes of Athol
N: The tune title has "Breas", but the table of contents has the correct "Braes".
R: reel
B: Robert Bremner "A Collection of Scots Reels or Country Dances" 1757 p.78 #2 (and p.79 #1)
S: http://imslp.org/wiki/A_Collection_of_Scots_Reels_or_Country_Dances_(Bremner,_Robert)
Z: 2013 John Chambers <jc:trillian.mit.edu>
N: Added flags to a few final quarter notes to fix the repeat rhythms.
M: C
L: 1/8
K: G
% - - - - - - - - - - - - - - - - - - - - - - - - -
V: 1
d |\
B2AG (B/c/d) (e/f/g) | B>AGB A/A/A Ad |\
TB2AG (B/c/d) (e/f/g) | D2-DB G/G/G G :|
|: (e/f/ |\
g)dBg dgdB | (g/f/e/d/ B)g Tf2 A(e/f/ |\
g)dBg dgdB | (c/B/A/G/ F)A G/G/G G :|
|: A |\
(BG)(BG) (BG) (B/c/d) | BG (B/c/d) (e/f/g) A2 |\
(BG) (B/c/d) (e/f/g) (f/g/a) | D2-DB G/G/G G :|
|: A |\
Gg g/f/e/d/ Bg g/f/e/d/ | Gg Bg a2 Ae/f/ |\
(g/f/e/d/ B)g dgdB | c/B/A/G/ FA G/G/G G :|
% - - - - - - - - - - - - - - - - - - - - - - - - -
V: 2 clef=bass middle=d
z |\
g2g2 g2g2 | g2g2 a2a2 |\
g2g2 g2g2 | d2d2 G2G :|\
|: z |\
g2g2 g2g2 | g2g2
%page 79
a2a2 |\
g2g2 g2g2 | d2d2 G2G :|\
|: z |\
g2g2 g2g2 | g2g2 a2a2 |\
g2g2 g2g2 |
d2d2 G2G :|\
|: z |\
g2g2 g2g2 | g2g2 a2a2 |\
g2g2 g2g2 | d2d2 G2G :|
% - - - - - - - - - - - - - - - - - - - - - - - - -

%%sep 1 1 500
%%sep 1 1 500
